X:305
T:Schottis fr Västergötland
R:polka 32 schottische
N:Yorkshire Dales Scandy weekend, June '99; workshop tunes
O:Sweden
Z:photocopies from Suzanne Lind & Louise Schultz
M:4/4
K:A
(E|
A)c/B/ Ac/d/ ee/f/ e>a|gg/f/ dd f/f/f/e/ cA|
A/A/c/B/ Ac/d/ ef e>(a|g)B/c/ dB/G/ B2 A>(c|
d/)d/f/e/ dd c/c/e/d/ cc|B/B/d/c/ B(B/G/) Ac/d/ e>(c|
d/)d/f/e/ dd c/c/e/d/ cc|Bd/c/ B(B/G/) Ac A2||
V:2
z|
A,>A, CE A,>A, CE|E>E GB A,>A, CE|
A,>A, CE A,>A, CE|E>E FG AE A2|
D>D FA A,>A, CE|E>E GB A,>A, B,C|
D>D FA A,A, CE|E>E GB AE A2||
V:1
W: æ ingen har du som lagar din mat
W: æ ingen har du som brygger din dricka
W: men det har du själv för du var it lat
W: och ej skatt at dej nå{g}on flicka

